src/ui/assets/rectangular.svg

<svg xmlns="http://www.w3.org/2000/svg" width="100" height="100" fill="none"><path fill="#000" d="M82.833 68.167a2 2 0 0 0-2 2v8h-8a2 2 0 0 0 0 4h10a2 2 0 0 0 2-2v-10a2 2 0 0 0-2-2ZM61.417 78.167H38.584a2 2 0 0 0 0 4h22.833a2 2 0 0 0 0-4ZM27.167 78.167h-8v-8a2 2 0 0 0-4 0v10a2 2 0 0 0 2 2h10a2 2 0 0 0 0-4ZM17.167 62.083a2 2 0 0 0 2-2V39.917a2 2 0 0 0-4 0v20.166a2 2 0 0 0 2 2ZM27.167 17.833h-10a2 2 0 0 0-2 2v10a2 2 0 0 0 4 0v-8h8a2 2 0 0 0 0-4ZM61.417 17.833H38.583a2 2 0 0 0 0 4h22.834a2 2 0 0 0 0-4ZM82.833 17.833h-10a2 2 0 0 0 0 4h8v8a2 2 0 0 0 4 0v-10a2 2 0 0 0-2-2ZM82.833 37.917a2 2 0 0 0-2 2v20.167a2 2 0 0 0 4 0V39.917a2 2 0 0 0-2-2Z"/></svg>

<svg width="100" height="100" viewBox="0 0 100 100" fill="none" xmlns="http://www.w3.org/2000/svg">
<path d="M82.833 68.167C81.729 68.167 80.833 69.063 80.833 70.167V78.167H72.833C71.729 78.167 70.833 79.063 70.833 80.167C70.833 81.271 71.729 82.167 72.833 82.167H82.833C83.937 82.167 84.833 81.271 84.833 80.167V70.167C84.833 69.062 83.938 68.167 82.833 68.167Z" fill="black"/>
<path d="M61.417 78.167H38.584C37.48 78.167 36.584 79.063 36.584 80.167C36.584 81.271 37.48 82.167 38.584 82.167H61.417C62.521 82.167 63.417 81.271 63.417 80.167C63.417 79.063 62.521 78.167 61.417 78.167Z" fill="black"/>
<path d="M27.167 78.167H19.167V70.167C19.167 69.063 18.271 68.167 17.167 68.167C16.063 68.167 15.167 69.063 15.167 70.167V80.167C15.167 81.271 16.063 82.167 17.167 82.167H27.167C28.271 82.167 29.167 81.271 29.167 80.167C29.167 79.063 28.271 78.167 27.167 78.167Z" fill="black"/>
<path d="M17.167 62.083C18.271 62.083 19.167 61.187 19.167 60.083V39.917C19.167 38.813 18.271 37.917 17.167 37.917C16.063 37.917 15.167 38.813 15.167 39.917V60.083C15.167 61.188 16.062 62.083 17.167 62.083Z" fill="black"/>
<path d="M27.167 17.833H17.167C16.063 17.833 15.167 18.729 15.167 19.833V29.833C15.167 30.937 16.063 31.833 17.167 31.833C18.271 31.833 19.167 30.937 19.167 29.833V21.833H27.167C28.271 21.833 29.167 20.937 29.167 19.833C29.167 18.729 28.271 17.833 27.167 17.833Z" fill="black"/>
<path d="M61.417 17.833H38.583C37.479 17.833 36.583 18.729 36.583 19.833C36.583 20.937 37.479 21.833 38.583 21.833H61.417C62.521 21.833 63.417 20.937 63.417 19.833C63.417 18.729 62.521 17.833 61.417 17.833Z" fill="black"/>
<path d="M82.833 17.833H72.833C71.729 17.833 70.833 18.729 70.833 19.833C70.833 20.937 71.729 21.833 72.833 21.833H80.833V29.833C80.833 30.937 81.729 31.833 82.833 31.833C83.937 31.833 84.833 30.937 84.833 29.833V19.833C84.833 18.729 83.938 17.833 82.833 17.833Z" fill="black"/>
<path d="M82.833 37.917C81.729 37.917 80.833 38.813 80.833 39.917V60.084C80.833 61.188 81.729 62.084 82.833 62.084C83.937 62.084 84.833 61.188 84.833 60.084V39.917C84.833 38.812 83.938 37.917 82.833 37.917Z" fill="black"/>
</svg>
